X: 15380
T: Glaspaa
R: hornpipe
M: 4/4
K: Gmajor
|:dc|"G"(3.B.dB GB "D"(3.A.c.A FA|"G"Gg fg ed BG|"D"(3FGA DF "Am"AB cd|"Em"ec Bc "Am"A2 "D"dc|
"G"(3.B.d.B GB "D"(3.A.c.A FA|"G"Gg fg ed BG|"D"FG AB "Am"ce dc|"G"BG GF G2:|
|:"G"(3.A.B.c|dg fg bg fg|dg fg "Em"ed BG|"D"(3.F.G.A DF "Am"AB cd|"Em"(3edc Bc "Am"A2 "D"dc|
"G"(3.B.c.B GB "D"(3.A.c.A FA|"G"Gg fg "Em"ed BG|"D"FG AB "Am"ce dc|"G"BG GF G2:|

